X:1
T:Ove ne vai si lieta
T:Ove ne vai si lieta
T:Giovanni Battista Cenni
T:Source : Canzonette spirituale a tre voci---Libro primo---Venetia---Ang.Gardano---1607. Editor : André Vierendeels (17/06/16).
T:Notes : Original clefs : C1, C1, F4 Music collected by M.A.Tornioli
T:©
T:©
T:©
C:Giovanni Battista Cenni
Z:©
%%score [ 1 2 3 ]
L:1/8
Q:1/4=102
M:4/4
K:F
V:1 treble nm="Soprano 1" snm="S 1"
V:2 treble nm="Soprano 2" snm="S 2"
V:3 bass nm="Bass" snm="B"
V:1
 z4 B4- | B2 Bc d4- | d4 c4 | c6 BA | G4 G4 | z2 B4 cd | A8 | G8 :: z4 d4 | df_ed c4 | d8 | %11
w: O-|* ve ne vai|_ si|lie- * *|* ta,|a- ni- ma|mi-|a.|Non|ve- d'il tuo Si- gno-|re,|
 z4 G2 G2 | G6 FE | F8- | F4 E4 | D2 D2 D4- | D2 CB, C4- | C4 =B,4 | B8 | A8 | d2 cB A4 | G8 | %22
w: che lan-|gui- sce d'a-|mo-|* re,|che lan- gui-|* sce d'a- mo-|* re,|e|tu|lie- ta ne va-|i,|
 B2 AG FEDC | B,4 C4 | C4 D4 | E8 | z8 | f2 ed cBAG | ^F2 G4 F2 | G8 :| %30
w: pre- ci- pi- tan- do ne gl'e-|ter- ni|gua- *|i,||pre- ci- pi- tan- do ne gl'e-|ter- ni gua-|i.|
V:2
 G6 Bc | d4 B4 | B6 AG | A6 GF | E4 E4 | z4 G4- | G2 FE ^F4 | G8 :: B4 BdcB | A2 B4 A2 | B8 | %11
w: O- ve ne|vai si|lie- * *||* ta,|a-|* ni- ma mi-|a.|Non ve- d'il tuo Si-|gno- * *|re,|
 c2 c2 c4- | c2 BA B4- | B2 AG A2 B2 | G8 | z4 F2 F2 | F6 ED | E4 D4 | G8- | G4 ^F4 | %20
w: che lan- gui-|* sce d'a- mo-||re,|che lan-|gui- sce d'a-|mo- re,|e|_ tu|
 D2 EG G2 ^F2 | G8 | z4 d4- | d2 cB AGFE | G3 C C2 =B,2 | C4 G4- | G2 cB AGFE | D4 E2 c2- | %28
w: lie- ta ne va- *|i,|pre-|* ci- pi- tan- do ne gl'e-|ter- ni gua- *|i, pre-|* ci- pi- tan- do ne gl'e-|ter- ni gua-|
 c2 B2 A4 | G8 :| %30
w: |i.|
V:3
 z4 G,,4- | G,,2 G,A, B,4- | B,4 F,4 | F,G,A,B, C4- | C4 C,4 | B,,6 A,,G,, | D,8 | G,,8 :: %8
w: O-|* ve ne vai|_ si|lie- * * * *|* ta,|a- ni- ma|mi-|a.|
 G,4 G,B,A,G, | F,8 | B,,8 | z4 _E,2 E,2 | _E,6 D,C, | D,8 | C,8 | B,,2 B,,2 B,4- | B,2 A,G, A,4 | %17
w: Non ve- d'il tuo Si-|gno-|re,|che lan-|gui- sce d'a-|mo-|re,|che lan- gui-|* sce d'a- mo-|
 G,8- | G,4 G,,4 | D,8 | z8 | z4 G,4- | G,2 F,E, D,C,B,,A,, | G,,4 F,,4 | E,,4 G,,4 | C,8 | %26
w: re,|_ e|tu||pre-|* ci- pi- tan- do ne gl'e-|ter- ni|gua- *|i,|
 C2 A,G, F,E,D,C, | B,,4 C,4 | D,8 | G,,8 :| %30
w: pre- ci- pi- tan- do ne gl'e-|ter- ni|gua-|i.|

